X:1
T:Title
%%score { ( 1 3 ) | ( 2 4 ) }
L:1/8
Q:1/4=100
M:4/4
K:Ab
V:1 treble nm="Grand Piano"
V:3 treble 
V:2 bass 
V:4 bass 
V:1
 [CE]3 [DF] [CE]2 [A,C]2 | [CE]2 [CA]2 [CA]4 | [EB]3 [EB] [EA]2 [EB]2 | [Ec]6 z2 | %4
w: Wm.~J.~Kirkpatrick * * *||||
 [Ec]3 [DB] [CA]2 [CE]2 | [DF]2 [FA]2 [FA]4 | G2 A2 c2 B2 | [CA]6 z2 | B3 A G2 F2 | E2 d2 c4 | %10
w: ||||||
 c3 B A2 F2 | B6 z2 | E3 F [CE]2 [A,C]2 | [CE]2 [CA]2 [Ec]4 | B3 A c2 B2 |[M:3/4] [CA]6 | %16
w: ||||||
[M:1/4] c>d |[M:4/4] e6 z2 | e8 | d2 d2 c2 c2 |[M:5/4] B2 AA [Ge]6 | %21
w: |||||
[M:4/4] [Ec]3 [DB] [CA]2 [CE]2 | [DF]2 [FA]2 [Fd]2 [DFB]2 | [CEA]2 z2 [Ec]2 [DEB]2 | [CEA]6 z2 |] %25
w: ||||
V:2
 [A,,A,]3 [A,,A,] [A,,A,]2 [A,,E,]2 | [A,,A,]2 [A,,E,]2 [A,,E,]4 | %2
 [E,G,]3 [D,G,] [C,A,]2 [B,,G,]2 | [A,,A,]6 z2 | [A,,A,]3 [A,,E,] [A,,E,]2 [A,,A,]2 | %5
 [D,A,]2 [D,D]2 [D,D]4 | [E,B,E]2 [E,CE]2 [E,A,E]2 [E,G,D]2 | [A,,A,]6 z2 | %8
 [E,DE]3 [E,CE] [E,B,E]2 [E,A,E]2 | [E,G,]2 [E,B,E]2 [A,E]4 | [F,A,=D]3 [F,A,D] [F,B,D]2 [F,A,D]2 | %11
 [E,G,D]6 z2 | [A,C]3 [A,D] [A,,A,]2 [A,,E,]2 | [A,,A,]2 [A,,A,]2 [A,,A,]4 | %14
 [E,G,D]3 [E,A,C] [E,A,E]2 [E,G,D]2 |[M:3/4] [A,,E,A,]6 |[M:1/4][K:treble] A>B |[M:4/4] c6 z2 | %18
 c8 | [B,EG]2 [B,EG]2 [A,EA]2 [A,EA]2 |[M:5/4][K:bass] [G,B,E]2 .[F,B,=D]2 [E,B,]6 | %21
[M:4/4] [A,,A,]3 [A,,E,] [A,,E,]2 [A,,A,]2 | [D,A,]2 [D,A,]2 [D,A,]2 D,2 | E,2 z2 E,2 E,2 | %24
 A,,6 z2 |] %25
V:3
 x8 | x8 | x8 | x8 | x8 | x8 | x8 | x8 | x8 | x8 | x8 | x8 | x8 | x8 | x8 |[M:3/4] x6 |[M:1/4] x2 | %17
[M:4/4] z2 E>E E2 c>d | z2 E>E E4 | x8 |[M:5/4] x10 |[M:4/4] x8 | x8 | x8 | x8 |] %25
V:4
 x8 | x8 | x8 | x8 | x8 | x8 | x8 | x8 | x8 | x8 | x8 | x8 | x8 | x8 | x8 |[M:3/4] x6 | %16
[M:1/4][K:treble] x2 |[M:4/4] z2 A,>A, A,2 A>B | z2 A,>A, A,4 | x8 |[M:5/4][K:bass] x10 | %21
[M:4/4] x8 | x8 | x8 | x8 |] %25

